ids-wordpress/site-IdS/assets/images/icones redes sociais/email.svg

<svg width="29" height="24" viewBox="0 0 29 24" fill="none" xmlns="http://www.w3.org/2000/svg">
<path d="M3.41564 3.45608L12.0618 10.1719L12.0647 10.1744C13.0248 10.8985 13.5051 11.2608 14.0312 11.4008C14.4962 11.5245 14.9849 11.5245 15.4499 11.4008C15.9765 11.2607 16.4582 10.8974 17.4199 10.1719C17.4199 10.1719 22.9657 5.79447 26.0658 3.45608M2 17.726V6.65976C2 5.02879 2 4.2127 2.30859 3.58975C2.58003 3.04179 3.01285 2.59661 3.54559 2.31741C4.15123 2 4.94465 2 6.53032 2H22.9517C24.5374 2 25.3291 2 25.9348 2.31741C26.4675 2.59661 26.9018 3.04179 27.1732 3.58975C27.4815 4.21209 27.4815 5.02719 27.4815 6.65497V17.7309C27.4815 19.3587 27.4815 20.1726 27.1732 20.795C26.9018 21.3429 26.4675 21.7889 25.9348 22.0681C25.3297 22.3852 24.5384 22.3852 22.9558 22.3852H6.52567C4.9431 22.3852 4.15064 22.3852 3.54559 22.0681C3.01285 21.7889 2.58003 21.3429 2.30859 20.795C2 20.172 2 19.357 2 17.726Z" stroke="white" stroke-width="2.54815" stroke-linecap="round" stroke-linejoin="round"/>
</svg>

<svg xmlns="http://www.w3.org/2000/svg" width="29" height="24" fill="none"><path stroke="#fff" stroke-linecap="round" stroke-linejoin="round" stroke-width="2.548" d="m3.416 3.456 8.646 6.716.003.002c.96.725 1.44 1.087 1.966 1.227.465.123.954.123 1.419 0 .527-.14 1.008-.504 1.97-1.23 0 0 5.546-4.377 8.646-6.715M2 17.726V6.66c0-1.631 0-2.447.309-3.07a2.872 2.872 0 0 1 1.237-1.273C4.15 2 4.945 2 6.53 2h16.422c1.585 0 2.377 0 2.983.317.533.28.967.725 1.238 1.273.309.622.309 1.437.309 3.065v11.076c0 1.628 0 2.442-.309 3.064a2.877 2.877 0 0 1-1.238 1.273c-.605.317-1.397.317-2.98.317H6.526c-1.582 0-2.374 0-2.98-.317a2.874 2.874 0 0 1-1.236-1.273C2 20.172 2 19.357 2 17.726Z"/></svg>
